2021/frontend/assets/img/fan-small.svg

<svg fill="none" height="149" viewBox="0 0 154 149" width="154" xmlns="http://www.w3.org/2000/svg" xmlns:xlink="http://www.w3.org/1999/xlink"><filter id="a" color-interpolation-filters="sRGB" filterUnits="userSpaceOnUse" height="164.677" width="167.914" x="-14.7949" y="-16.3872"><feFlood flood-opacity="0" result="BackgroundImageFix"/><feColorMatrix in="SourceAlpha" type="matrix" values="0 0 0 0 0 0 0 0 0 0 0 0 0 0 0 0 0 0 127 0"/><feOffset/><feGaussianBlur stdDeviation="11"/><feColorMatrix type="matrix" values="0 0 0 0 1 0 0 0 0 0.658824 0 0 0 0 0.658824 0 0 0 1 0"/><feBlend in2="BackgroundImageFix" mode="normal" result="effect1_dropShadow"/><feBlend in="SourceGraphic" in2="effect1_dropShadow" mode="normal" result="shape"/></filter><g filter="url(#a)"><path d="m7.70508 6.11279h122.91392v119.67721h-122.91392z" stroke="#e82f5c"/></g><g fill="#e82f5c"><path d="m76.3528 44.1431-14.9016 9.1772 2.5396-7.4274 13.7251-7.9115z"/><path d="m105.895 68.8457 8.216 8.9353h-84.0126l-7.1707-8.9353z"/><path d="m71.3856 62.5161h11.1482l-31.1663 57.1669h-10.1585z"/><path d="m89.4445 120h10.9805l-25.6954-38.124-5.0792 8.9353z"/><path d="m98.0901 26.6263h-14.6775l-4.3696-5.4542h19.0471v-4.0768l5.8079-4.0953v8.1721h13.277l5.826 5.4542h-19.103v32.2973l-5.8079 5.4543z"/><path d="m35.0285 26.6263h-14.6589l-4.3696-5.4542h19.0285v-4.0768l5.8261-4.0953v8.1721h13.277l5.8262 5.4542h-19.1032v32.2973l-5.8261 5.4543z"/><path d="m33.5713 27.0171v6.9621l-12.642 13.8869-1.1578-6.1989z"/><path d="m42.0508 27.0171v6.5898l8.0857 11.0946 3.5106-2.178z"/><path d="m96.8194 27.0171v6.9621l-12.6421 13.8869-1.1578-6.1989z"/><path d="m105.297 27.0171v6.5898l8.086 11.0946 3.51-2.178z"/><path d="m79.4709 48.0896-5.7328 3.3135-5.7889-1.2658 5.7328-3.3321z"/><path d="m71.9659 40.513-5.7142 3.3135-5.7888-1.2845 5.7141-3.3135z"/><path d="m76.3528 23.8525-14.9016 9.1773 2.5396-7.4274 13.7251-7.9115z"/><path d="m79.4709 27.7991-5.7328 3.3135-5.7889-1.2658 5.7328-3.3322z"/><path d="m71.9659 20.2224-5.7142 3.3135-5.7888-1.2844 5.7141-3.3135z"/></g></svg>

<svg width="154" height="149" viewBox="0 0 154 149" fill="none" xmlns="http://www.w3.org/2000/svg">
<g filter="url(#filter0_d)">
<path d="M7.70508 6.11279H130.619V125.79H7.70508V6.11279Z" stroke="#E82F5C"/>
</g>
<path d="M76.3528 44.1431L61.4512 53.3203L63.9908 45.8929L77.7159 37.9814L76.3528 44.1431Z" fill="#E82F5C"/>
<path d="M105.895 68.8457L114.111 77.781H30.0984L22.9277 68.8457H105.895Z" fill="#E82F5C"/>
<path d="M71.3856 62.5161H82.5338L51.3675 119.683H41.209L71.3856 62.5161Z" fill="#E82F5C"/>
<path d="M89.4445 120H100.425L74.7296 81.876L69.6504 90.8113L89.4445 120Z" fill="#E82F5C"/>
<path d="M98.0901 26.6263H83.4126L79.043 21.1721H98.0901V17.0953L103.898 13V21.1721H117.175L123.001 26.6263H103.898V58.9236L98.0901 64.3779V26.6263Z" fill="#E82F5C"/>
<path d="M35.0285 26.6263H20.3696L16 21.1721H35.0285V17.0953L40.8546 13V21.1721H54.1316L59.9578 26.6263H40.8546V58.9236L35.0285 64.3779V26.6263Z" fill="#E82F5C"/>
<path d="M33.5713 27.0171V33.9792L20.9293 47.8661L19.7715 41.6672L33.5713 27.0171Z" fill="#E82F5C"/>
<path d="M42.0508 27.0171V33.6069L50.1365 44.7015L53.6471 42.5235L42.0508 27.0171Z" fill="#E82F5C"/>
<path d="M96.8194 27.0171V33.9792L84.1773 47.8661L83.0195 41.6672L96.8194 27.0171Z" fill="#E82F5C"/>
<path d="M105.297 27.0171V33.6069L113.383 44.7015L116.893 42.5235L105.297 27.0171Z" fill="#E82F5C"/>
<path d="M79.4709 48.0896L73.7381 51.4031L67.9492 50.1373L73.682 46.8052L79.4709 48.0896Z" fill="#E82F5C"/>
<path d="M71.9659 40.513L66.2517 43.8265L60.4629 42.542L66.177 39.2285L71.9659 40.513Z" fill="#E82F5C"/>
<path d="M76.3528 23.8525L61.4512 33.0298L63.9908 25.6024L77.7159 17.6909L76.3528 23.8525Z" fill="#E82F5C"/>
<path d="M79.4709 27.7991L73.7381 31.1126L67.9492 29.8468L73.682 26.5146L79.4709 27.7991Z" fill="#E82F5C"/>
<path d="M71.9659 20.2224L66.2517 23.5359L60.4629 22.2515L66.177 18.938L71.9659 20.2224Z" fill="#E82F5C"/>
<defs>
<filter id="filter0_d" x="-14.7949" y="-16.3872" width="167.914" height="164.677" filterUnits="userSpaceOnUse" color-interpolation-filters="sRGB">
<feFlood flood-opacity="0" result="BackgroundImageFix"/>
<feColorMatrix in="SourceAlpha" type="matrix" values="0 0 0 0 0 0 0 0 0 0 0 0 0 0 0 0 0 0 127 0"/>
<feOffset/>
<feGaussianBlur stdDeviation="11"/>
<feColorMatrix type="matrix" values="0 0 0 0 1 0 0 0 0 0.658824 0 0 0 0 0.658824 0 0 0 1 0"/>
<feBlend mode="normal" in2="BackgroundImageFix" result="effect1_dropShadow"/>
<feBlend mode="normal" in="SourceGraphic" in2="effect1_dropShadow" result="shape"/>
</filter>
</defs>
</svg>
